X:1
T:Title
L:1/8
M:4/4
K:Bb
V:1 treble nm="Grand Piano"
V:1
 z4 z2 DE | D6 GA | B4 c2 B2 | A6 G2 | ^F2 E2 D2 CE | D6 D2 | G2 G2- GGA=B | c2 c4 c2 | %8
 A2 A2 B2 c2 | d6 BA | G2 G2- GGAG | G2 F4 E2 | E2 E2 G2 ^FE |[M:3/4] D6 |[M:1/4] DE | %15
[M:4/4] E2 D2 d2 ce | d6 c2 | c2 =Bc e2 dB | c6 BB | B2 B2 B2 AG | ^F6 CD | E2 E2 ^F2 F2 | G6 z2 |] %23

